!!!!SEGMENT: pl-wtm--r-245-m_moniuszko-stanislaw--dwa-slowa.krn
!!!cenid: 18xx:1651
!!!COM: Moniuszko, Stanisław
!!!COM-rismid: pe30008351
!!!CDT: 1819/05/05-1872/06/04
!!!CNT: Polish
!!!OTL: Dwa słowa
!!!PDT:
!!!AGN: Secular
!!!SMS-siglum: PL-Wtm
!!!SMS-shelfmark: R 245/M
!!!SMS-shelfwork: W
!!!SMS-variant:
!!!SMS-altvar:
!!!NIFC-rismid: 1001063781
!!!URL-scan: http://repozytorium.nifc.pl/skany/pl-wtm-nut--r229m
!!!ONB-nifc:
**kern	**kern	**dynam	**kern	**text	**text	**dynam
*part2	*part2	*part2	*part1	*part1	*part1	*part1
*staff3	*staff2	*	*staff1	*staff1	*staff1	*
*Iempty	*Iempty	*	*Iempty	*	*	*
*I"	*I"	*	*I"	*	*	*
*clefF4	*clefG2	*	*clefG2	*	*	*
*k[b-e-a-]	*k[b-e-a-]	*	*k[b-e-a-]	*	*	*
*e-:	*e-:	*	*e-:	*	*	*
*M4/4	*M4/4	*	*M4/4	*	*	*
=1	=1	=1	=1	=1	=1	=1
*2\right	*Xtuplet	*	*	*	*	*
!	!LO:TX:t=P:problem:mixed beam	!	!LO:TX:a:i:t=27. Dwa słowa. A. Sowy	!	!	!
2BB- 2EE-\	12e-\L	.	2r	.	.	.
.	(12E-</	.	.	.	.	.
.	12B-</J	.	.	.	.	.
!	!LO:TX:t=P:problem:mixed beam	!	!	!	!	!
.	12e-\L	.	.	.	.	.
.	12B-</	.	.	.	.	.
.	12e-\J)	.	.	.	.	.
2BB- 2EE-\	12r	.	8r	.	.	.
!	!LO:TX:t=P:problem:mixed beam	!	!	!	!	!
.	(12F</L	.	.	.	.	.
.	.	.	8B-/	Po-	.	.
.	12B-</	.	.	.	.	.
.	12f\	.	8.c/	-nad	.	.
.	12B-</	.	.	.	.	.
.	12f\J)	.	.	.	.	.
.	.	.	16d/	gro-	.	.
=2	=2	=2	=2	=2	=2	=2
2BB- 2EE-\	12r	.	4.e-/	-ba-	.	.
!	!LO:TX:t=P:problem:mixed beam	!	!	!	!	!
.	(12G-X</L	.	.	.	.	.
.	12B-</	.	.	.	.	.
!	!LO:TX:b:t=cres-cen-do.:problem:dynamics with extention lines	!LO:HP:t=cres-cen-do.:ext=cd	!	!	!	!
.	12g-X\	<	.	.	.	.
.	12e-\	.	.	.	.	.
.	.	.	8e-/	-mi,	.	.
.	12g-\J)	.	.	.	.	.
2BB- 2EE-\	12r	.	8.e-/	po-	.	.
.	(12B-/L	.	.	.	.	.
.	12f/J	.	.	.	.	.
.	.	.	16dn/	-nad	.	.
.	12b-/L	.	8e-/	smę-	.	.
.	12f/	.	.	.	.	.
.	.	.	8f/	-ta-	.	.
.	12b-/J)	.	.	.	.	.
=3	=3	=3	=3	=3	=3	=3
2BB- 2EE-\	12r	.	2g-X/	-rza-	.	.
.	(12e-/L	.	.	.	.	.
.	12b-/J	.	.	.	.	.
.	12ee-\L	.	.	.	.	.
.	12b-\	.	.	.	.	.
.	12ee-\J)	.	.	.	.	.
2BB- 2EE-\	12r	[	8f/	-mi	.	.
.	(12f\L	.	.	.	.	.
.	.	.	8f/	co	.	.
.	12b-\J	.	.	.	.	.
.	12ff\L	.	8g-/	rok	.	.
.	12b-\	.	.	.	.	.
.	.	.	8a-/	się	.	.
.	12ff\J)	.	.	.	.	.
!!LO:LB:g=original
=4	=4	=4	=4	=4	=4	=4
*^	*	*	*	*	*	*
!	!LO:N:xstem	!	!LO:DY:rj	!	!	!	!
(4e- 4E-\	2B-\	(12gg-X/L	f	4.b-\	chmu-	.	.
!	!	!	!LO:HP:b=2	!	!	!	!
.	.	12g-X/	>	.	.	.	.
.	.	12b-/J	.	.	.	.	.
4d-X 4D-X\	.	12ff/L	.	.	.	.	.
.	.	12b-/	.	.	.	.	.
.	.	.	.	8b-\	-rzy	.	.
.	.	12f/J	.	.	.	.	.
!	!LO:N:xstem	!	!	!	!	!	!
4c 4C\	2E-\	12ee-/L	.	8.b-\	jas-	.	.
.	.	12e-/	.	.	.	.	.
.	.	12a-/J	.	.	.	.	.
.	.	.	.	16a-\	-na	.	.
4c-X 4C-X\)	.	12g-X/L	.	8.g-X\	twarz	.	.
.	.	12f/	.	.	.	.	.
.	.	12g-J 12e-'/)	]	.	.	.	.
.	.	.	.	16a-\	sło-	.	.
*v	*v	*	*	*	*	*	*
=5	=5	=5	=5	=5	=5	=5
*	*	*	*2\right	*	*	*
!LO:TX:a:t=P:problem:przekreślone sf	!	!	!	!	!	!
(2B- 2BB-\	12r	.	2b-\	-necz-	.	.
.	(12d/L	.	.	.	.	.
.	12f/J	.	.	.	.	.
.	12b-/L	.	.	.	.	.
.	12f/	.	.	.	.	.
.	12d/J)	.	.	.	.	.
2E-\	12r	sf	8b-\	-ka,	.	.
!	!	!LO:HP:a	!	!	!	!
.	(12e-/L	>	.	.	.	.
.	.	.	8cc-X\	co	.	.
.	12g-X/J	.	.	.	.	.
.	12b-/L	.	8.g-X/	rok	.	.
.	12g-/	.	.	.	.	.
.	12e-/J)	.	.	.	.	.
.	.	]	16a-/	za-	.	.
=6	=6	=6	=6	=6	=6	=6
!	!	!LO:DY:b=2	!	!	!	!
2BB-/	12r	pp	4b-\	-bi-	.	.
.	(12d/L	.	.	.	.	.
.	12b-/J	.	.	.	.	.
.	12f/L	.	8.b-\	-ja	.	.
.	12d/	.	.	.	.	.
.	12B-/J)	.	.	.	.	.
.	.	.	16b-\	chłód	.	.
8qEE-/)	.	.	.	.	.	.
2EE-/	12r	.	4cc-X\	ży-	.	.
!	!	!LO:DY:a	!	!	!	!
.	(12An/L	pp	.	.	.	.
.	12c-X/J	.	.	.	.	.
.	12g-X/L	.	8b-\	-cie	.	.
.	12c-/	.	.	.	.	.
.	.	.	8an\	kwia-	.	.
.	12A/J)	.	.	.	.	.
!!LO:LB:g=original
=7	=7	=7	=7	=7	=7	=7
2BBB-/	12r	.	(4.b-\	-tecz-	.	.
.	(12B-/L	.	.	.	.	.
.	12d/J	.	.	.	.	.
.	12f/L	.	.	.	.	.
.	12d/	.	.	.	.	.
.	.	.	8a-X\	.	.	.
.	12B-/J)	.	.	.	.	.
4EE-/	12r	.	16g-X/)	-ka,	.	.
.	.	.	16r	.	.	.
.	(12B-/L	.	.	.	.	.
.	.	.	8b-/	pta-	.	.
.	12b-J 12g-X/	.	.	.	.	.
4r	12a-L 12f/	.	8.d/	-szek	.	.
.	12B-/	.	.	.	.	.
.	12g-J 12e-/	.	.	.	.	.
.	.	.	16e-/	kraj	.	.
=8	=8	=8	=8	=8	=8	=8
2BB-/	12fL 12d/)	.	4f/	żeg-	.	.
.	(12B-/	.	.	.	.	.
.	12d/J	.	.	.	.	.
.	12f/L	.	8f/	-na	.	.
.	[12d/	.	.	.	.	.
.	.	.	8f/	smu-	.	.
.	([12fJ 12d/_)	.	.	.	.	.
*Xtuplet	*	*	*	*	*	*
!LO:TX:a:t=P:problem:mixed beam	!	!LO:HP:a	!	!	!	!
12BB-/L	8.f]L 8.d/]	<	8.f/L	-tne-	.	.
(12G-X\	.	.	.	.	.	.
12B-\J	.	.	.	.	.	.
.	16g-XJk 16e-/	[	16g-X/Jk	.	.	.
!	!	!LO:HP:a	!	!	!	!
12e-\L	8.b-L 8.g-/	>	8.b-/	-mi	.	.
12B-\	.	.	.	.	.	.
12G-\J)	.	.	.	.	.	.
.	32a-LL 32f/	.	32a-/LLL	pieś-	.	.
.	32g-JJJ 32e-/)	]]	32g-/JJJ	.	.	.
=9	=9	=9	=9	=9	=9	=9
2BB-/	12fL 12d/	.	4f/	-nia-	.	.
.	(12B-/	.	.	.	.	.
.	12d/J	.	.	.	.	.
.	12f/L	.	4f/	-mi.	.	.
.	12d/	.	.	.	.	.
.	12B-/J	.	.	.	.	.
4..B-\	12b-/L	.	8r	.	.	.
.	12f/	.	.	.	.	.
.	.	.	8f/	Co	.	.
.	12d/J	.	.	.	.	.
.	12f/L	.	8f/	rok:	.	.
.	12d/	.	.	.	.	.
.	.	.	8f/	u-	.	.
.	12B-/J)	.	.	.	.	.
16BB-/	.	.	.	.	.	.
!!LO:LB:g=original
=10	=10	=10	=10	=10	=10	=10
*2/left	*	*	*	*	*	*
(2BB- 2BBB-/	12r	.	4.g-X/	-mie-	.	.
.	(12B-/L	.	.	.	.	.
.	12dn/J	.	.	.	.	.
.	12g-X/L	.	.	.	.	.
.	12d/	.	.	.	.	.
.	.	.	8g-/	-taj!	.	.
.	12B-/J	.	.	.	.	.
4AA- 4AAA-/	12c-X/L	.	8.cc-X\	mó-	.	.
.	12e--/	.	.	.	.	.
.	12g-X/J	.	.	.	.	.
.	.	.	16cc-\	-wi	.	.
4DD-X/)	12f/L	.	8.cc-\	Bóg	.	.
.	12d-X/	.	.	.	.	.
.	12B-/J)	.	.	.	.	.
.	.	.	16cc-\	na-	.	.
=12/right1	=11	=11	=11	=11	=11	=11
!I	!	!	!	!	!	!
(2GG-X (2GGG-X/	12r	.	4cc-X\	-tu-	.	>
.	(12B-/L	<	.	.	.	.
.	12d-X/J	.	.	.	.	.
.	12g-X/L	.	4b-\	-rze!	.	]
.	12d-/	.	.	.	.	.
.	12B-/J	.	.	.	.	.
(2G-X\))	12b-/L	.	8r	.	.	.
.	12f/	.	.	.	.	.
*	*	*	*	*	*above	*
.	.	.	8b-\	rzu-	roz-	.
.	12d-/J	.	.	.	.	.
.	12g-/L	.	8a-\	-ca-	-bierz	.
.	12d-/	.	.	.	.	.
.	.	[	8b-\	-ją	się	.
.	12f-X/J)	.	.	.	.	.
=12	=12	=12	=12	=12	=12	=12
*^	*	*	*	*	*	*
1G-X)	2C-X\	12r	sf	2cc-X\	ży-	z ży-	.
.	.	(12e--/L	>	.	.	.	.
.	.	12g-X/J	.	.	.	.	.
.	.	12cc-X/L	.	.	.	.	.
.	.	12g-/	.	.	.	.	.
.	.	12e--/J)	.	.	.	.	.
.	2GG-X\	(12d-X/L	]	16b-\	-cie,	-cia,	.
.	.	.	.	16r	.	.	.
.	.	12b-/	.	.	.	.	.
.	.	.	.	8b-\	pła-	za-	.
.	.	12g-X/J	.	.	.	.	.
.	.	12d-/L	.	8a-\	-cze	-płacz	.
.	.	12B-/	.	.	.	.	.
.	.	.	.	8b-\	z ża-	z ża	.
.	.	12G-X/J)	.	.	.	.	.
*v	*v	*	*	*	*	*	*
!!LO:PB:g=original
=13	=13	=13	=13	=13	=13	=13
2CC-X\	(>12F</L	.	2cc-X\	-łoś-	.	.
.	12A--</	.	.	.	.	.
.	12c-X</J	.	.	.	.	.
.	12e--</L	.	.	.	.	.
.	12c-</	.	.	.	.	.
.	12A--</J	.	.	.	.	.
N(<2GGG-X\	12G-X</L	.	8b-\	-cią.	.	.
.	12d-X</	.	.	.	.	.
.	.	.	16r	.	.	.
.	12B-</J	.	.	.	.	.
.	.	.	16b-\	I	.	.
.	12G-</L	.	8.cc-^\	bi-	[[wy-	.
.	12D</	.	.	.	.	.
.	12G-<J 12BB-</N))	.	.	.	.	.
.	.	.	16b-\	-ją	-ją]]	.
=14	=14	=14	=14	=14	=14	=14
*	*^	*	*	*	*	*
4C-X 4EE- 4CC-X\	(>4e- 4E-</	12E-</L	.	4e-/	gro-	.	.
.	.	12G-X</	.	.	.	.	.
.	.	12c-X</J	.	.	.	.	.
4BB- 4FF 4BBB-\	4f 4dn 4F</	12F</L	.	8.f/	-my	.	.
.	.	12B-</	.	.	.	.	.
.	.	12F</J	.	.	.	.	.
.	.	.	.	16f/	i	.	.
!	!	!LO:TX:a:t=P:problem:mixed beam	!	!	!	!	!
4E- 4GG-X 4EE-\	4g-X 4G-</	12G-X</L	.	4g/	wy-	.	.
.	.	12B-</	.	.	.	.	.
.	.	12e-\J	.	.	.	.	.
!	!	!LO:TX:a:t=P:problem:mixed beam	!	!LO:TX:a:t=P:problem:pokreślone nuty	!	!	!
4C- 4EE- 4CC-\	4a-/	12A-</L	.	4a-/	-ją	.	.
.	.	12f\	.	.	.	.	.
.	.	12e-\J	.	.	.	.	.
*	*v	*v	*	*	*	*	*
=15	=15	=15	=15	=15	=15	=15
2BB- 2BBB-/	12b-L 12B-/)	.	4.b-\	bu-	.	.
.	(12d/	.	.	.	.	.
.	12f/J	.	.	.	.	.
.	12b-/L	.	.	.	.	.
.	12f/	.	.	.	.	.
.	.	.	8b-\	-rze,	.	.
.	12d/J	.	.	.	.	.
*	*ped	*	*	*	*	*
!	!	!	!	!	!	!LO:DY:t=f.
(<12GGL 12GGG/	4b- 4e- 4d-X/)	sf	4b-\	bo	.	f
12BB-/	.	.	.	.	.	.
12D/J	.	.	.	.	.	.
!LO:TX:t=P:problem:mixed beam	!	!	!	!	!	!
12G/L	8.e-L 8.d-/	.	8.B-/	wszy-	.	.
12B-/	.	.	.	.	.	.
12d>\J)	.	.	.	.	.	.
.	(>16e-/Jk	.	16B-/	-stko	.	.
*	*Xped	*	*	*	*	*
!!LO:LB:g=original
=16	=16	=16	=16	=16	=16	=16
!	!LO:TX:b:t=P:problem:koniec łuku na dole	!	!	!	!	!
2AA- 2AAA-/	12e-L 12c/)	.	4c/	py-	.	.
.	(12e-/	.	.	.	.	.
.	12A-/J	.	.	.	.	.
!	!LO:TX:a:t=P:problem:mixed beam	!	!	!	!	!
.	12c\L	.	8c/	-łem,	.	.
.	12E-</	.	.	.	.	.
.	.	.	16r	.	.	.
.	12G-X</J)	.	.	.	.	.
.	.	.	16cc\	a	.	.
2AAn 2AAAn/	12F</	.	4cc\	On	.	.
.	(12e-L 12c/	.	.	.	.	.
.	12f/J	.	.	.	.	.
.	12cc/L	.	8b-\	jest	.	.
.	12f/	.	.	.	.	.
.	.	.	8cc\	wie-	.	.
.	12cc/J	.	.	.	.	.
=17	=17	=17	=17	=17	=17	=17
2BB- 2BBB-/	12dd/L)	.	4.dd\	-czno-	.	.
.	(12f 12d/	.	.	.	.	.
.	12b-/J	.	.	.	.	.
.	12dd/L	.	.	.	.	.
.	12b-/	.	.	.	.	.
.	.	.	8dd\	-ścią,	.	.
.	12f/J)	.	.	.	.	.
*	*ped	*	*	*	*	*
!LO:S:s=1:note:problem:note-level slur	!	!	!	!	!	!
(<12BBnL 12BBBn/	4dd 4g 4f 4d/	.	4dd^\	wszy-	.	.
12D/	.	.	.	.	.	.
12G/J	.	.	.	.	.	.
!LO:TX:a:t=P:problem:mixed beam	!	!	!	!	!	!
12B-/L	8.gL 8.f/	.	8.d/	-stko	.	.
12d/	.	.	.	.	.	.
12f>\J)	.	.	.	.	.	.
.	[>16g/Jk	.	16d/	tu	.	.
*	*Xped	*	*	*	*	*
=18	=18	=18	=18	=18	=18	=18
2C 2CC/	12g]L 12e-/	.	4e-/	py-	.	.
.	(12g/	.	.	.	.	.
.	12c/J	.	.	.	.	.
.	12e-/L	.	8e-/	-łem,	.	.
.	12c/	.	.	.	.	.
.	.	.	16r	.	.	.
.	12e-/J)	.	.	.	.	.
.	.	.	16e-/	a	.	.
!LO:TX:t=P:problem:pokreślone nuty	!LO:TX:t=P:problem:12b- skreślone	!	!	!	!	!
2G 2E- 2C\	(12b- 12g/L	.	4ee-^\	On	.	.
.	12e-/	.	.	.	.	.
.	12cc/J	.	.	.	.	.
.	12a-/L	.	8.dd\	jest	.	.
.	12e-/	.	.	.	.	.
!	!LO:TX:t=P:problem:12g skreślone	!	!	!	!	!
.	12g 12c/J)	.	.	.	.	.
.	.	.	16cc\	wiecz-	.	.
!!LO:LB:g=original
=19	=19	=19	=19	=19	=19	=19
(2D 2DD\	12r	.	[2b-\	-noś-	.	.
.	(12B-/L	.	.	.	.	.
.	12f/J	.	.	.	.	.
.	12b-/L	.	.	.	.	.
.	12f/	.	.	.	.	.
.	12B-/J	.	.	.	.	.
4..E- 4..EE-\	12g/L	.	8b-\L]	.	.	.
.	12e-/	.	.	.	.	.
.	.	.	8cc\J	.	.	.
.	12c/J	.	.	.	.	.
.	12e-/L	.	8g/	-cią	.	.
.	12c/	.	.	.	.	.
.	.	.	8a-/	a	.	.
.	12fJ 12A-/)	.	.	.	.	.
16FF/)	.	.	.	.	.	.
=20	=20	=20	=20	=20	=20	=20
2BB-/	12r	.	4b-/	On	.	.
.	(12G/L	.	.	.	.	.
.	12B-/J	.	.	.	.	.
.	12gL 12e-/	.	8.g/	jest	.	.
.	12B-/	.	.	.	.	.
.	12G/J)	.	.	.	.	.
.	.	.	16e-/	wie-	.	.
4..BB-/	(12fL 12e-/	.	(4..B-/	-cznoś-	.	.
.	12B-/	.	.	.	.	.
.	12e-/J	.	.	.	.	.
.	12b-L 12d/	.	.	.	.	.
.	12B-/	.	.	.	.	.
.	12f/J)	.	.	.	.	.
16BB-/	.	.	16e-/)	.	.	.
=21	=21	=21	=21	=21	=21	=21
*8ba	*ped	*	*	*	*	*
!LO:TX:b:t=8	!	!	!	!	!	!
!LO:N:vis=2	!LO:N:vis=3	!	!	!	!	!
[1EEE-/	(12EE-</L	.	4e-/	-cią.	.	.
.	12E-</	.	.	.	.	.
.	12B-</J	.	.	.	.	.
.	12e-\L	.	4r	.	.	.
.	12g\	.	.	.	.	.
.	12b-\J	.	.	.	.	.
*	*Xped	*	*	*	*	*
.	12ee-\L	.	2r	.	.	.
.	12gg\	.	.	.	.	.
.	12cc\J	.	.	.	.	.
.	12ee-\L	.	.	.	.	.
.	12a-\	.	.	.	.	.
.	12cc\J)	.	.	.	.	.
*X8ba	*	*	*	*	*	*
!!LO:LB:g=original
=22	=22	=22	=22	=22	=22	=22
*8ba	*	*	*	*	*	*
!LO:TX:b:t=8	!	!	!	!	!	!
4EEE-/_	12f/L	.	1r	.	.	.
.	12b-/	.	.	.	.	.
.	12e-/J	.	.	.	.	.
8.EEE-/L]	12g/L	.	.	.	.	.
.	[12c/	.	.	.	.	.
.	12fJ 12c] 12A-/	.	.	.	.	.
16AAA-Jk 16AAAA-/	.	.	.	.	.	.
8BBB- 8BBBB-/	8e- 8B- 8G/	.	.	.	.	.
8r	8r	.	.	.	.	.
4BBB- 4BBBB-\	8.dL 8.A-< 8.F<;/	.	.	.	.	.
.	16e-Jk 16G< 16E-</	.	.	.	.	.
*X8ba	*	*	*	*	*	*
=23	=23	=23	=23	=23	=23	=23
*8ba	*	*	*	*	*	*
!LO:TX:b:t=8	!	!	!	!	!	!
[2EEE-\	[2e- [>2G< [<2E-</	.	2r	.	.	.
8EEE-\]	8e-] 8G<] 8E-</]	.	8r	.	.	.
8r	8r	.	8r	.	.	.
4r	4r	.	4r	.	.	.
*X8ba	*	*	*	*	*	*
==	==	==	==	==	==	==
*-	*-	*-	*-	*-	*-	*-
!!!system-decoration: {<s1>(s2,s3)}
!!!RDF**kern: > = above
!!!RDF**kern: < = below
!!!RDF**kern: N = linked
!!!RDF**dynam: pp = "pp."
!!!RDF**dynam: sf = "sf."
!!!AIN: 2 empty
!!!ENC: Marta Lawrence
!!!END: 2021-04-15
!!!ENC: Berenika Jozajtis
!!!END: 2021-03-29
